client/src/assets/icons/microphone.svg

<svg width="25" height="25" viewBox="0 0 25 25" fill="none" xmlns="http://www.w3.org/2000/svg">
<path d="M12.5 2.08325C13.3288 2.08325 14.1237 2.41249 14.7097 2.99854C15.2958 3.58459 15.625 4.37945 15.625 5.20825V11.4583C15.625 12.2871 15.2958 13.0819 14.7097 13.668C14.1237 14.254 13.3288 14.5833 12.5 14.5833C11.6712 14.5833 10.8764 14.254 10.2903 13.668C9.70425 13.0819 9.37501 12.2871 9.37501 11.4583V5.20825C9.37501 4.37945 9.70425 3.58459 10.2903 2.99854C10.8764 2.41249 11.6712 2.08325 12.5 2.08325ZM19.7917 11.4583C19.7917 15.1353 17.0729 18.1666 13.5417 18.677V21.8749H11.4583V18.677C7.92709 18.1666 5.20834 15.1353 5.20834 11.4583H7.29168C7.29168 12.8396 7.84041 14.1643 8.81716 15.1411C9.79391 16.1179 11.1187 16.6666 12.5 16.6666C13.8813 16.6666 15.2061 16.1179 16.1829 15.1411C17.1596 14.1643 17.7083 12.8396 17.7083 11.4583H19.7917Z" fill="black"/>
</svg>

<svg xmlns="http://www.w3.org/2000/svg" width="25" height="25" fill="none" viewBox="0 0 25 25">
  <path fill="#000" d="M12.5 2.083a3.125 3.125 0 0 1 3.125 3.125v6.25a3.125 3.125 0 0 1-6.25 0v-6.25A3.125 3.125 0 0 1 12.5 2.083Zm7.292 9.375c0 3.677-2.72 6.709-6.25 7.219v3.198h-2.084v-3.198c-3.53-.51-6.25-3.542-6.25-7.219h2.084a5.208 5.208 0 0 0 10.416 0h2.084Z"/>
</svg>
